!! 00047] TT[KA
!! NN
!!!OTL: Fang che yao
!!!ARE: Jilin, Yanbian
!! Ethnic Group: Chaoxian
!! III, 161
!!!SCT: C0284
!!!YEM: Copyright 1995, estate of Helmut Schaffrath.
**kern
*ICvox
*Ivox
!! Irregular meter.
*MX
*k[b-e-]
*B-:
{16dd
16dd
8dd
8a
16dd
16dd
4dd
!*M3/4
=1
8gg
16.aa
32ddd
32bb-
16.aa
8gg
4dd}
=2
{8gg
8gg
16gg
16aa
16ddd
16bb-
32aa
32ccc
32bb-
32aa
8gg
=3
16.gg
32aa
32gg
[16.dd
8dd]
8gg
8gg
4gg}
{8dd
8dd
8a
8dd
4dd
=4
8gg
16.aa
32ddd
32bb-
16.aa
8gg
4dd}
=5
{8gg
8gg
16gg
16aa
16dd
16bb-
32aa
32ccc
32bb-
32aa
8gg
=6
16.gg
32aa
32gg
[16.dd
8dd]
8gg
4gg}
=7
{16gg
16ccc
4ccc
8ccc
16ccc
8.aa
=8
16.ddd
32ccc
16ddd
8.ggg
16ddd
16ddd
4ddd}
=9
{16ccc
16ddd
8ddd
8ddd
8aa
32ccc
16.aa
16.aa
32gg
=10
16.gg
32aa
32ddd
[16.aa
8aa]
16gg
16gg
4gg}
=11
{8dd
8dd
8a
8dd
4dd
=12
8gg
16.aa
32ddd
32bb-
16.aa
8gg
4dd}
=13
{8gg
8gg
16gg
16aa
16ddd
16bb-
32aa
32ccc
32bb-
32aa
8gg
=14
16.gg
32aa
32gg
[16.dd
8dd]
8gg
4gg}
=15
{16ddd
16fff
16fff
8.fff
16fff
16ddd
16ddd
8.ggg
=16
[16.ddd
32ddd]
32ccc
16.ddd
32bb-
16.aa
16gg
16gg
4dd}
=17
{8gg
8gg
16gg
16aa
8ddd
16bb-
16aa
8gg
=18
16.gg
32aa
32ddd
16.gg
32bb-
16.aa
16gg
16gg
4gg}
=19
{16dd
16dd
8dd
8a
16dd
16dd
4dd
=20
8gg
16.aa
32ddd
32bb-
16.aa
8gg
4dd}
=21
{8gg
8gg
16gg
16aa
16ddd
16bb-
32aa
32ccc
32bb-
32aa
8gg
=22
16.gg
32aa
32gg
[16.dd
8dd]
8gg
8gg
4gg}
{8dd
8dd
8a
8dd
4dd
=23
8gg
16.aa
32ddd
32bb-
16.aa
8gg
4dd}
=24
{8gg
8gg
16gg
16aa
16dd
16bb-
32aa
32ccc
32bb-
32aa
8gg
=25
16.gg
32aa
32gg
[16.dd
8dd]
8gg
4gg}
==
!!!AGN: Laodong gequ, Nandao geyao. Suku
!! Tonart aehnelt einer japanischen. In Suedkorea verbreitet.
!!    Wenig Verzierungen.
!!    Vier Taktarten angegeben: 6/8 7/8 10/8 9/8. In FREI geaendert ++++++
!!!ONB: ESAC (Essen Associative Code) Database: CHINA
!!!AMT: irregular
!!!AIN: vox
!!!EED: Helmut Schaffrath
!!!EEV: 1.0
*-
